packages/icons/svg/Fill/brush.svg

<svg fill="none" height="24" viewBox="0 0 24 24" width="24" xmlns="http://www.w3.org/2000/svg"><path clip-rule="evenodd" d="m16.3757 4.66785c.777-.777 2.047-.915 2.886-.207.493.417.746 1.002.738 1.596.007.537-.198 1.066-.602 1.47l-6.485 6.49095c-.183.184-.481.184-.665 0l-2.273-2.275c-.184-.184-.184-.483 0-.667zm-12.32172 11.74615c.032-1.836 1.275-3.496 3.07-3.866 2.92302-.603 5.33802 2.194 4.04302 5.19-.584 1.35-1.97102 2.177-3.44002 2.203h-.002l-3.246.059c-.266.005-.484-.213-.479-.479z" fill="#6b7280" fill-rule="evenodd"/></svg>

<svg width="24" height="24" viewBox="0 0 24 24" fill="none" xmlns="http://www.w3.org/2000/svg">
<g id="Icon/Fill/brush">
<path id="Mask" fill-rule="evenodd" clip-rule="evenodd" d="M16.3758 4.66789C17.1528 3.89089 18.4228 3.75289 19.2618 4.46089C19.7548 4.87789 20.0078 5.4629 19.9998 6.0569C20.0068 6.59389 19.8018 7.12289 19.3978 7.52689L12.9128 14.0179C12.7298 14.2019 12.4318 14.2019 12.2478 14.0179L9.97478 11.7429C9.79078 11.5589 9.79078 11.2599 9.97478 11.0759L16.3758 4.66789ZM4.05408 16.4139C4.08608 14.5779 5.32908 12.9179 7.12408 12.5479C10.0471 11.9449 12.4621 14.7419 11.1671 17.7379C10.5831 19.0879 9.19608 19.9149 7.72708 19.9409H7.72508L4.47908 19.9999C4.21308 20.0049 3.99508 19.7869 4.00008 19.5209L4.05408 16.4139Z" fill="#000000"/>
</g>
</svg>
